X:18206
T:Valse  Sylvie
C:B. Loffet
M:3/4
L:1/8
K:C
E|AE AB cB|AE c3E|AE AB cB|AF c3A|\
BA Bc dc|BG d3A|BA Bc dB|e4-eE|
AE AB cB|AE c3E|AE AB cB|AF c3A|\
BA Bc dc|BG d3B|ed cB A^G|A3ABA||
F3A BA|E3A Bc|d3G cd|e3A BA|\
F3A BA|E4-EE|E^F ^GA Bc|A3A BA|
FA Bc BA|EA Bc BA|dG ^FG de|eA Bc BA|\
FD EF AF|Ed cA Bc|ed cB A^G|A4-A:|
